X: 4667
T: Boy In The Wood, The
R: jig
M: 6/8
K: Gmajor
|:g|dBG AGE|GED DEG|A3 AGA|BAA A2g|
dBG AGE|GED DEG|A3 AGA|BGG G2:|
|:A|Bdd cee|Bdd dBG|Bdd efg|dBG A2G|
Bdd cee|Bdd dBG|A3 AGA|BGG G2A:|

